X:168
T:Whelan's
Z: id:dc-jig-144
M:6/8
L:1/8
K:E Dorian
E3 BAF|FEB AFD|E3 BAF|dAF FED|!
E3 BAF|FEB AFA|BdB BAF|dAF FED:|!
B3 e3|fed e3|Bef g3|fdB AFA|!
B3 e3|fed e2f|gbg faf|edB AFA:|!

